!!!OTL: Die niederlaendischen Grasmaedchen
!!!ARE: Europa, Mitteleuropa, Deutschland
!!!SCT: A0086
!!!YEM: Copyright 1995, estate of Helmut Schaffrath.
**kern
*ICvox
*Ivox
*M3/2
*k[b-]
*F:
{4ff
=1
2ff
2ff
4ee
4ff
=2
4.gg
8ff
4ee
2dd}
{4ee
=3
2ff
2ff
4ee
4cc
=4
4.dd
8cc
4a
4dd
4cc}
{4a
=5
2f
2f
4cc
4cc
=6
2dd
4ee
2ff}
{4ee
=7
4dd
4cc
4b-
4a
2g
=8
2.f
2r}
==
!!!AGN: Romanze, Ballade, Lied
!! Forster II 1540 No. 11.
!!!ONB: ESAC (Essen Associative Code) Database: ALTDEU
!!!AMT: simple triple
!!!AIN: vox
!!!EED: Helmut Schaffrath
!!!EEV: 1.0
*-
